src/icons/folder-image.svg

<?xml version="1.0" encoding="UTF-8" standalone="no"?>
<svg
   version="1.2"
   viewBox="0 0 16 16"
   width="16"
   height="16"
   id="svg1"
   sodipodi:docname="folder-image.svg"
   inkscape:version="1.4 (e7c3feb100, 2024-10-09)"
   xmlns:inkscape="http://www.inkscape.org/namespaces/inkscape"
   xmlns:sodipodi="http://sodipodi.sourceforge.net/DTD/sodipodi-0.dtd"
   xmlns="http://www.w3.org/2000/svg"
   xmlns:svg="http://www.w3.org/2000/svg">
  <defs
     id="defs1">
    <inkscape:path-effect
       effect="fillet_chamfer"
       id="path-effect1"
       is_visible="true"
       lpeversion="1"
       nodesatellites_param="F,0,0,1,0,0,0,1 @ F,0,0,1,0,0,0,1 @ F,0,0,1,0,0,0,1 @ F,0,0,1,0,0,0,1 @ F,0,0,1,0,0,0,1 @ F,0,0,1,0,1.1033113,0,1 @ F,0,0,1,0,0.91523179,0,1"
       radius="0"
       unit="px"
       method="auto"
       mode="F"
       chamfer_steps="1"
       flexible="false"
       use_knot_distance="true"
       apply_no_radius="true"
       apply_with_radius="true"
       only_selected="false"
       hide_knots="false" />
  </defs>
  <sodipodi:namedview
     id="namedview1"
     pagecolor="#505050"
     bordercolor="#eeeeee"
     borderopacity="1"
     inkscape:showpageshadow="0"
     inkscape:pageopacity="0"
     inkscape:pagecheckerboard="0"
     inkscape:deskcolor="#505050"
     inkscape:zoom="37.75"
     inkscape:cx="7.986755"
     inkscape:cy="8"
     inkscape:window-width="1316"
     inkscape:window-height="741"
     inkscape:window-x="20"
     inkscape:window-y="20"
     inkscape:window-maximized="0"
     inkscape:current-layer="svg1" />
  <title
     id="title1">folder-icon</title>
  <style
     id="style1">
		.s0 { fill: #8080a0 } 
		.s1 { fill: #5bafd4 } 
	</style>
  <g
     id="Layer 1">
    <path
       id="path1"
       class="s0"
       d="M 4.1992188,1 C 3.0992187,1 2.4996094,0.99921875 2.0996094,1.1992188 c -0.4,0.2 -0.7003906,0.5003906 -0.9003906,0.9003906 C 0.99921875,2.4996094 1,3.0992187 1,4.1992188 V 9 c 0,1.4 7.812e-4,2.099609 0.3007812,2.599609 0.2,0.5 0.5996094,0.89961 1.0996094,1.09961 C 2.9003906,12.999219 3.6,13 5,13 H 5.6992188 L 5.8051791,7.3349804 C 5.8257502,6.2351728 7.2349932,4.6674279 8.3349804,4.6727287 l 5.4970506,0.02649 c -0.03652,-0.1071999 -0.07824,-0.2078742 -0.132812,-0.2988282 -0.2,-0.5 -0.59961,-0.8996093 -1.09961,-1.0996094 C 12.099609,3.0007813 11.4,3 10,3 H 8.3007812 8.0996094 C 8.0329427,3 7.9670573,2.9670573 7.9003906,2.9003906 L 7.8007812,2.8007812 7.1992188,2.1992188 c -0.5,-0.5 -0.6984375,-0.6988282 -0.8984376,-0.7988282 C 6.0341146,1.2670573 5.7666667,1.166276 5.5,1.0996094 5.3,0.99960938 5.0007813,1 4.3007812,1 Z"
       sodipodi:nodetypes="sssssccscsscccscsscsscss" />
    <path
       id="Forma 1"
       class="s1"
       d="M 9 6 C 7.9 6 7 6.9 7 8 L 7 12 C 7 13.1 7.9 14 9 14 L 13 14 C 14.1 14 15 13.1 15 12 L 15 8 C 15 6.9 14.1 6 13 6 L 9 6 z M 13 7 C 13.6 7 14 7.4 14 8 C 14 8.6 13.6 9 13 9 C 12.4 9 12 8.6 12 8 C 12 7.4 12.4 7 13 7 z M 10 9 L 12 11 L 13 10 L 14 11 L 14 11.896484 A 1.1033113 1.1033113 0 0 1 12.896484 13 L 8.9160156 13 A 0.91523179 0.91523179 0 0 1 8 12.083984 L 8 11 L 10 9 z " />
  </g>
</svg>

<svg xmlns="http://www.w3.org/2000/svg" width="16" height="16" version="1.2"><path d="M4.2 1c-1.1 0-1.7 0-2.1.2q-.6.3-.9.9c-.2.4-.2 1-.2 2.1V9c0 1.4 0 2.1.3 2.6.2.5.6.9 1.1 1.1.5.3 1.2.3 2.6.3h.7l.105-5.665c.02-1.1 1.43-2.668 2.53-2.662l5.497.026a1.6 1.6 0 0 0-.133-.299c-.2-.5-.6-.9-1.1-1.1C12.1 3 11.4 3 10 3H8.1q-.1 0-.2-.1l-.1-.1-.6-.6c-.5-.5-.7-.7-.9-.8a4 4 0 0 0-.8-.3C5.3 1 5 1 4.3 1Z" style="fill:#8080a0"/><path d="M9 6c-1.1 0-2 .9-2 2v4c0 1.1.9 2 2 2h4c1.1 0 2-.9 2-2V8c0-1.1-.9-2-2-2zm4 1c.6 0 1 .4 1 1s-.4 1-1 1-1-.4-1-1 .4-1 1-1m-3 2 2 2 1-1 1 1v.896A1.103 1.103 0 0 1 12.896 13h-3.98A.915.915 0 0 1 8 12.084V11z" style="fill:#5bafd4"/></svg>
